X: 1
T: Reinlender i d moll etter Jon R\oen (Surnadal)
R: shottish
O: Norway
Z: 2009 John Chambers <jc:trillian.mit.edu>
S: handwritten MS of unknown origin, labelled "MB 81"
D: H\orkelgaddan
N: tuning EADA (from top)
M: 2/4
L: 1/16
K: Ddor
FA | "A7"A>GEG "Dm"F2DF | "A7"F>E^CE "Dm"D2FA | "A7"A>GEG "Dm"F2DF \
|1 "A7"F>E^CE "Dm"D2 :|2 "A7"F>E^CE "Dm"D3A, |]
|: "Dm"D>^CDE F>EFG | A>GAB "Am"c2ce | "E7"e>dBd "Am"c2A2 \
|1 A>GEG "Dm"F2D2 :|2 "A7"A>GEF "Dm"D2 |]
